Newaita-dark/apps/48/com.github.artemanufrij.graphui.svg

<svg height="48pt" viewBox="0 0 48 48" width="48pt" xmlns="http://www.w3.org/2000/svg" xmlns:xlink="http://www.w3.org/1999/xlink"><linearGradient id="a" gradientUnits="userSpaceOnUse" x1="23.814782" x2="23.814782" y1="42.0509035" y2="44.03546931253"><stop offset="0" stop-opacity=".27451"/><stop offset="1" stop-opacity="0"/></linearGradient><linearGradient id="b"><stop offset="0" stop-opacity=".313725"/><stop offset=".222222" stop-opacity=".27451"/><stop offset="1" stop-opacity="0"/></linearGradient><radialGradient id="c" cx="450.90894" cy="189.57936" gradientTransform="matrix(.00000026 -.117199 -.210958 -.00000015 78.195972 95.393002)" gradientUnits="userSpaceOnUse" r="21.166656" xlink:href="#b"/><radialGradient id="d" cx="450.90894" cy="189.57936" gradientTransform="matrix(-.00000026 .117199 .210958 .00000015 -30.566421 -11.291218)" gradientUnits="userSpaceOnUse" r="21.166656" xlink:href="#b"/><radialGradient id="e" cx="450.90894" cy="189.57936" gradientTransform="matrix(-.00000026 -.117199 .210958 -.00000015 -30.566421 95.393002)" gradientUnits="userSpaceOnUse" r="21.166656" xlink:href="#b"/><radialGradient id="f" cx="450.90894" cy="189.57936" gradientTransform="matrix(.00000026 .117199 -.210958 .00000015 78.195969 -11.291219)" gradientUnits="userSpaceOnUse" r="21.166656" xlink:href="#b"/><linearGradient id="g" gradientUnits="userSpaceOnUse" x1="15.87652368747" x2="15.87652368747" y1="42.0509015" y2="4.34415762506"><stop offset="0" stop-color="#8d6e63"/><stop offset="1" stop-color="#a1887f"/></linearGradient><linearGradient id="h"><stop offset="0" stop-color="#bdbdbd"/><stop offset="1" stop-color="#e0e0e0"/></linearGradient><linearGradient id="i" gradientUnits="userSpaceOnUse" x1="960" x2="960.00006" xlink:href="#h" y1="1695.1182" y2="175.11812"/><linearGradient id="j" gradientUnits="userSpaceOnUse" x1="23.81481451157" x2="23.814816" xlink:href="#h" y1="42.05096669922" y2="4.34417296272"/><path d="m8.929688 41.902344h29.769531v2.207031h-29.769531zm0 0" fill="url(#a)"/><path d="m38.699219 42.050781h3.96875v-1.984375h-3.96875zm0 0" fill="url(#c)"/><path d="m8.929688 42.050781h-3.96875v1.984375h3.96875zm0 0" fill="url(#d)"/><path d="m8.929688 42.050781h-3.96875v-1.984375h3.96875zm0 0" fill="url(#e)"/><path d="m38.699219 42.050781h3.96875v1.984375h-3.96875zm0 0" fill="url(#f)"/><path d="m6.945312 4.34375h33.738282c1.097656 0 1.984375.890625 1.984375 1.984375v33.738281c0 1.097656-.886719 1.984375-1.984375 1.984375h-33.738282c-1.09375 0-1.984374-.886719-1.984374-1.984375v-33.738281c0-1.09375.890624-1.984375 1.984374-1.984375zm0 0" fill="url(#g)"/><path d="m6.945312 4.34375c-1.097656 0-1.984374.886719-1.984374 1.984375v.25c0-1.101563.886718-1.988281 1.984374-1.984375h33.738282c1.097656-.003906 1.984375.882812 1.984375 1.984375v-.25c0-1.097656-.886719-1.984375-1.984375-1.984375zm0 0" fill="#e6e6e6" fill-opacity=".392157"/><path d="m6.945312 42.050781c-1.097656 0-1.984374-.886719-1.984374-1.984375v-.25c0 1.101563.886718 1.988282 1.984374 1.988282h33.738282c1.097656 0 1.984375-.886719 1.984375-1.988282v.25c0 1.097656-.886719 1.984375-1.984375 1.984375zm0 0" fill-opacity=".196078"/><path d="m74.076259-168.671091h359.840637c11.707216 0 21.164646 9.499093 21.164646 21.164646v359.840637c0 11.707215-9.45743 21.164645-21.164646 21.164645h-359.840637c-11.665552 0-21.164645-9.45743-21.164645-21.164645v-359.840637c0-11.665553 9.499093-21.164646 21.164645-21.164646zm0 0" fill="none" stroke="#212121" stroke-linecap="round" stroke-width="3" transform="matrix(.093759 0 0 .093759 0 20.158175)"/><path d="m958.648623 492.551395c-88.023091 5.038889-156.835418 27.398959-208.956426 67.39514-52.278473 39.838716-86.605904 96.526216-108.808508 165.810939-44.405209 138.411981-43.617883 329.417366-43.617883 569.394452h45.350001c0-2.519444 0-4.881424 0-7.243403l31.965451 18.423438 139.986634-242.496531-34.642361-19.99809-137.309724 237.930037c.157465-233.678475 1.732118-418.070318 41.413368-542.152958 20.313021-63.301042 49.759029-110.383161 93.219446-143.608335s102.194966-53.38073 184.076912-58.262154zm5.35382 0-2.67691 45.192535c81.881945 4.881424 140.616495 25.03698 184.076912 58.262154s72.906425 80.307293 93.219446 143.608335c39.996181 124.869967 41.413368 310.993928 41.413368 546.719451l-139.986634-242.49653-34.642361 19.99809 139.986634 242.496531 34.642361-19.998091v8.818056h45.350001c0-239.977086.787326-430.982471-43.617883-569.394452-22.202604-69.284723-56.530035-125.972223-108.808508-165.810939-52.121008-39.996181-120.933335-62.356251-208.956426-67.39514zm-23.934723 182.502259v180.14028h39.996181v-180.14028zm0 0" fill="url(#i)" stroke="#212121" stroke-linecap="round" stroke-linejoin="round" stroke-width="11.338583" transform="scale(.0248071)"/><path d="m23.816406 8.3125c-2.476562 0-4.46875 1.992188-4.46875 4.464844 0 2.476562 1.992188 4.464844 4.46875 4.464844 2.472656 0 4.464844-1.988282 4.464844-4.464844 0-2.472656-1.992188-4.464844-4.464844-4.464844zm-3.972656 11.90625c-1.097656 0-1.984375.886719-1.984375 1.988281v2.976563c0 1.097656.886719 1.984375 1.984375 1.984375h7.941406c1.097656 0 1.984375-.886719 1.984375-1.984375v-2.976563c0-1.101562-.886719-1.988281-1.984375-1.988281zm-7.9375 10.917969c-1.097656 0-1.984375.882812-1.984375 1.984375v2.976562c0 1.097656.886719 1.984375 1.984375 1.984375h7.9375c1.101562 0 1.988281-.886719 1.988281-1.984375v-2.976562c0-1.101563-.886719-1.984375-1.988281-1.984375zm15.878906 0c-1.101562 0-1.984375.882812-1.984375 1.984375v2.976562c0 1.097656.882813 1.984375 1.984375 1.984375h7.9375c1.097656 0 1.984375-.886719 1.984375-1.984375v-2.976562c0-1.101563-.886719-1.984375-1.984375-1.984375zm0 0" fill="url(#j)"/><path d="m23.816406 8.3125c-2.476562 0-4.46875 1.992188-4.46875 4.464844 0 .125.007813.25.015625.375.191407-2.300782 2.101563-4.09375 4.453125-4.09375 2.347656 0 4.261719 1.792968 4.449219 4.09375.007813-.125.015625-.25.015625-.375 0-2.472656-1.992188-4.464844-4.464844-4.464844zm-3.972656 11.90625c-1.097656 0-1.984375.886719-1.984375 1.988281v.742188c0-1.097657.886719-1.984375 1.984375-1.984375h7.941406c1.097656 0 1.984375.886718 1.984375 1.984375v-.742188c0-1.101562-.886719-1.988281-1.984375-1.988281zm-7.9375 10.917969c-1.097656 0-1.984375.882812-1.984375 1.984375v.742187c0-1.097656.886719-1.984375 1.984375-1.984375h7.9375c1.101562 0 1.988281.886719 1.988281 1.984375v-.742187c0-1.101563-.886719-1.984375-1.988281-1.984375zm15.878906 0c-1.101562 0-1.984375.882812-1.984375 1.984375v.742187c0-1.097656.882813-1.984375 1.984375-1.984375h7.9375c1.097656 0 1.984375.886719 1.984375 1.984375v-.742187c0-1.101563-.886719-1.984375-1.984375-1.984375zm0 0" fill="#fff" fill-opacity=".392157"/><path d="m19.375 13.273438c-.015625.164062-.027344.328124-.027344.496093 0 2.476563 1.992188 4.464844 4.46875 4.464844 2.472656 0 4.464844-1.988281 4.464844-4.464844 0-.167969-.011719-.332031-.027344-.496093-.246094 2.238281-2.132812 3.96875-4.4375 3.96875-2.308594 0-4.195312-1.730469-4.441406-3.96875zm-1.515625 11.910156v.992187c0 1.097657.886719 1.984375 1.984375 1.984375h7.941406c1.097656 0 1.984375-.886718 1.984375-1.984375v-.992187c0 1.097656-.886719 1.984375-1.984375 1.984375h-7.941406c-1.097656 0-1.984375-.886719-1.984375-1.984375zm-7.9375 10.914062v.992188c0 1.097656.886719 1.984375 1.984375 1.984375h7.9375c1.101562 0 1.988281-.886719 1.988281-1.984375v-.992188c0 1.097656-.886719 1.984375-1.988281 1.984375h-7.9375c-1.097656 0-1.984375-.886719-1.984375-1.984375zm15.878906 0v.992188c0 1.097656.882813 1.984375 1.984375 1.984375h7.9375c1.097656 0 1.984375-.886719 1.984375-1.984375v-.992188c0 1.097656-.886719 1.984375-1.984375 1.984375h-7.9375c-1.101562 0-1.984375-.886719-1.984375-1.984375zm0 0" fill-opacity=".235294"/><path d="m960.065811 335.086115c-99.832988 0-180.14028 80.307293-180.14028 179.982815 0 99.832987 80.307292 179.982815 180.14028 179.982815 99.675522 0 179.982814-80.149828 179.982814-179.982815 0-99.675522-80.307292-179.982815-179.982814-179.982815zm-160.14219 479.954173c-44.247743 0-79.992362 35.744619-79.992362 80.149827v119.988544c0 44.247743 35.744619 79.992362 79.992362 79.992362h320.126914c44.247744 0 79.992362-35.744619 79.992362-79.992362v-119.988544c0-44.405208-35.744618-80.149827-79.992362-80.149827zm-319.969448 440.115457c-44.247744 0-79.992362 35.587153-79.992362 79.992362v119.988543c0 44.247744 35.744618 79.992362 79.992362 79.992362h319.969448c44.405209 0 80.149828-35.744618 80.149828-79.992362v-119.988543c0-44.405209-35.744619-79.992362-80.149828-79.992362zm640.096362 0c-44.405209 0-79.992362 35.587153-79.992362 79.992362v119.988543c0 44.247744 35.587153 79.992362 79.992362 79.992362h319.969448c44.247744 0 79.992363-35.744618 79.992363-79.992362v-119.988543c0-44.405209-35.744619-79.992362-79.992363-79.992362zm0 0" fill="none" stroke="#212121" stroke-linecap="round" stroke-linejoin="round" stroke-width="11.338583" transform="scale(.0248071)"/></svg>

<?xml version="1.0" encoding="UTF-8"?>
<svg xmlns="http://www.w3.org/2000/svg" xmlns:xlink="http://www.w3.org/1999/xlink" width="48pt" height="48pt" viewBox="0 0 48 48" version="1.1">
<defs>
<linearGradient id="linear0" gradientUnits="userSpaceOnUse" x1="254" y1="233.5" x2="254" y2="254.66667" gradientTransform="matrix(0.093759,0,0,0.093759,-0.00000375036,20.158177)">
<stop offset="0" style="stop-color:rgb(0%,0%,0%);stop-opacity:0.27451;"/>
<stop offset="1" style="stop-color:rgb(0%,0%,0%);stop-opacity:0;"/>
</linearGradient>
<radialGradient id="radial0" gradientUnits="userSpaceOnUse" cx="450.90894" cy="189.57936" fx="450.90894" fy="189.57936" r="21.166656" gradientTransform="matrix(0.000000261256,-0.117199,-0.210958,-0.000000152308,78.195972,95.393002)">
<stop offset="0" style="stop-color:rgb(0%,0%,0%);stop-opacity:0.313725;"/>
<stop offset="0.222222" style="stop-color:rgb(0%,0%,0%);stop-opacity:0.27451;"/>
<stop offset="1" style="stop-color:rgb(0%,0%,0%);stop-opacity:0;"/>
</radialGradient>
<radialGradient id="radial1" gradientUnits="userSpaceOnUse" cx="450.90894" cy="189.57936" fx="450.90894" fy="189.57936" r="21.166656" gradientTransform="matrix(-0.000000261256,0.117199,0.210958,0.000000152308,-30.566421,-11.291218)">
<stop offset="0" style="stop-color:rgb(0%,0%,0%);stop-opacity:0.313725;"/>
<stop offset="0.222222" style="stop-color:rgb(0%,0%,0%);stop-opacity:0.27451;"/>
<stop offset="1" style="stop-color:rgb(0%,0%,0%);stop-opacity:0;"/>
</radialGradient>
<radialGradient id="radial2" gradientUnits="userSpaceOnUse" cx="450.90894" cy="189.57936" fx="450.90894" fy="189.57936" r="21.166656" gradientTransform="matrix(-0.000000261256,-0.117199,0.210958,-0.000000152308,-30.566421,95.393002)">
<stop offset="0" style="stop-color:rgb(0%,0%,0%);stop-opacity:0.313725;"/>
<stop offset="0.222222" style="stop-color:rgb(0%,0%,0%);stop-opacity:0.27451;"/>
<stop offset="1" style="stop-color:rgb(0%,0%,0%);stop-opacity:0;"/>
</radialGradient>
<radialGradient id="radial3" gradientUnits="userSpaceOnUse" cx="450.90894" cy="189.57936" fx="450.90894" fy="189.57936" r="21.166656" gradientTransform="matrix(0.000000261256,0.117199,-0.210958,0.000000152308,78.195969,-11.291219)">
<stop offset="0" style="stop-color:rgb(0%,0%,0%);stop-opacity:0.313725;"/>
<stop offset="0.222222" style="stop-color:rgb(0%,0%,0%);stop-opacity:0.27451;"/>
<stop offset="1" style="stop-color:rgb(0%,0%,0%);stop-opacity:0;"/>
</radialGradient>
<linearGradient id="linear1" gradientUnits="userSpaceOnUse" x1="169.33333" y1="233.5" x2="169.33333" y2="-168.66666" gradientTransform="matrix(0.093759,0,0,0.093759,0,20.158175)">
<stop offset="0" style="stop-color:rgb(55.294118%,43.137255%,38.823529%);stop-opacity:1;"/>
<stop offset="1" style="stop-color:rgb(63.137255%,53.333333%,49.803922%);stop-opacity:1;"/>
</linearGradient>
<linearGradient id="linear2" gradientUnits="userSpaceOnUse" x1="960" y1="1695.1182" x2="960.00006" y2="175.11812" >
<stop offset="0" style="stop-color:rgb(74.117647%,74.117647%,74.117647%);stop-opacity:1;"/>
<stop offset="1" style="stop-color:rgb(87.843137%,87.843137%,87.843137%);stop-opacity:1;"/>
</linearGradient>
<linearGradient id="linear3" gradientUnits="userSpaceOnUse" x1="959.99994" y1="1695.1182" x2="960" y2="175.11813" gradientTransform="matrix(0.0248071,0,0,0.0248071,0,0)">
<stop offset="0" style="stop-color:rgb(74.117647%,74.117647%,74.117647%);stop-opacity:1;"/>
<stop offset="1" style="stop-color:rgb(87.843137%,87.843137%,87.843137%);stop-opacity:1;"/>
</linearGradient>
</defs>
<g id="surface1">
<path style=" stroke:none;fill-rule:nonzero;fill:url(#linear0);" d="M 8.929688 41.902344 L 38.699219 41.902344 L 38.699219 44.109375 L 8.929688 44.109375 Z M 8.929688 41.902344 "/>
<path style=" stroke:none;fill-rule:nonzero;fill:url(#radial0);" d="M 38.699219 42.050781 L 42.667969 42.050781 L 42.667969 40.066406 L 38.699219 40.066406 Z M 38.699219 42.050781 "/>
<path style=" stroke:none;fill-rule:nonzero;fill:url(#radial1);" d="M 8.929688 42.050781 L 4.960938 42.050781 L 4.960938 44.035156 L 8.929688 44.035156 Z M 8.929688 42.050781 "/>
<path style=" stroke:none;fill-rule:nonzero;fill:url(#radial2);" d="M 8.929688 42.050781 L 4.960938 42.050781 L 4.960938 40.066406 L 8.929688 40.066406 Z M 8.929688 42.050781 "/>
<path style=" stroke:none;fill-rule:nonzero;fill:url(#radial3);" d="M 38.699219 42.050781 L 42.667969 42.050781 L 42.667969 44.035156 L 38.699219 44.035156 Z M 38.699219 42.050781 "/>
<path style=" stroke:none;fill-rule:nonzero;fill:url(#linear1);" d="M 6.945312 4.34375 L 40.683594 4.34375 C 41.78125 4.34375 42.667969 5.234375 42.667969 6.328125 L 42.667969 40.066406 C 42.667969 41.164062 41.78125 42.050781 40.683594 42.050781 L 6.945312 42.050781 C 5.851562 42.050781 4.960938 41.164062 4.960938 40.066406 L 4.960938 6.328125 C 4.960938 5.234375 5.851562 4.34375 6.945312 4.34375 Z M 6.945312 4.34375 "/>
<path style=" stroke:none;fill-rule:nonzero;fill:rgb(90.196078%,90.196078%,90.196078%);fill-opacity:0.392157;" d="M 6.945312 4.34375 C 5.847656 4.34375 4.960938 5.230469 4.960938 6.328125 L 4.960938 6.578125 C 4.960938 5.476562 5.847656 4.589844 6.945312 4.59375 L 40.683594 4.59375 C 41.78125 4.589844 42.667969 5.476562 42.667969 6.578125 L 42.667969 6.328125 C 42.667969 5.230469 41.78125 4.34375 40.683594 4.34375 Z M 6.945312 4.34375 "/>
<path style=" stroke:none;fill-rule:nonzero;fill:rgb(0%,0%,0%);fill-opacity:0.196078;" d="M 6.945312 42.050781 C 5.847656 42.050781 4.960938 41.164062 4.960938 40.066406 L 4.960938 39.816406 C 4.960938 40.917969 5.847656 41.804688 6.945312 41.804688 L 40.683594 41.804688 C 41.78125 41.804688 42.667969 40.917969 42.667969 39.816406 L 42.667969 40.066406 C 42.667969 41.164062 41.78125 42.050781 40.683594 42.050781 Z M 6.945312 42.050781 "/>
<path style="fill:none;stroke-width:3;stroke-linecap:round;stroke-linejoin:miter;stroke:rgb(12.941176%,12.941176%,12.941176%);stroke-opacity:1;stroke-miterlimit:4;" d="M 74.076259 -168.671091 L 433.916896 -168.671091 C 445.624112 -168.671091 455.081542 -159.171998 455.081542 -147.506445 L 455.081542 212.334192 C 455.081542 224.041407 445.624112 233.498837 433.916896 233.498837 L 74.076259 233.498837 C 62.410707 233.498837 52.911614 224.041407 52.911614 212.334192 L 52.911614 -147.506445 C 52.911614 -159.171998 62.410707 -168.671091 74.076259 -168.671091 Z M 74.076259 -168.671091 " transform="matrix(0.093759,0,0,0.093759,0,20.158175)"/>
<path style="fill-rule:nonzero;fill:url(#linear2);stroke-width:11.338583;stroke-linecap:round;stroke-linejoin:round;stroke:rgb(12.941176%,12.941176%,12.941176%);stroke-opacity:1;stroke-miterlimit:4;" d="M 958.648623 492.551395 C 870.625532 497.590284 801.813205 519.950354 749.692197 559.946535 C 697.413724 599.785251 663.086293 656.472751 640.883689 725.757474 C 596.47848 864.169455 597.265806 1055.17484 597.265806 1295.151926 L 642.615807 1295.151926 C 642.615807 1292.632482 642.615807 1290.270502 642.615807 1287.908523 L 674.581258 1306.331961 L 814.567892 1063.83543 L 779.925531 1043.83734 L 642.615807 1281.767377 C 642.773272 1048.088902 644.347925 863.697059 684.029175 739.614419 C 704.342196 676.313377 733.788204 629.231258 777.248621 596.006084 C 820.709038 562.78091 879.443587 542.625354 961.325533 537.74393 Z M 964.002443 492.551395 L 961.325533 537.74393 C 1043.207478 542.625354 1101.942028 562.78091 1145.402445 596.006084 C 1188.862862 629.231258 1218.30887 676.313377 1238.621891 739.614419 C 1278.618072 864.484386 1280.035259 1050.608347 1280.035259 1286.33387 L 1140.048625 1043.83734 L 1105.406264 1063.83543 L 1245.392898 1306.331961 L 1280.035259 1286.33387 C 1280.035259 1289.325711 1280.035259 1292.160086 1280.035259 1295.151926 L 1325.38526 1295.151926 C 1325.38526 1055.17484 1326.172586 864.169455 1281.767377 725.757474 C 1259.564773 656.472751 1225.237342 599.785251 1172.958869 559.946535 C 1120.837861 519.950354 1052.025534 497.590284 964.002443 492.551395 Z M 940.06772 675.053654 L 940.06772 855.193934 L 980.063901 855.193934 L 980.063901 675.053654 Z M 940.06772 675.053654 " transform="matrix(0.0248071,0,0,0.0248071,0,0)"/>
<path style=" stroke:none;fill-rule:nonzero;fill:url(#linear3);" d="M 23.816406 8.3125 C 21.339844 8.3125 19.347656 10.304688 19.347656 12.777344 C 19.347656 15.253906 21.339844 17.242188 23.816406 17.242188 C 26.289062 17.242188 28.28125 15.253906 28.28125 12.777344 C 28.28125 10.304688 26.289062 8.3125 23.816406 8.3125 Z M 19.84375 20.21875 C 18.746094 20.21875 17.859375 21.105469 17.859375 22.207031 L 17.859375 25.183594 C 17.859375 26.28125 18.746094 27.167969 19.84375 27.167969 L 27.785156 27.167969 C 28.882812 27.167969 29.769531 26.28125 29.769531 25.183594 L 29.769531 22.207031 C 29.769531 21.105469 28.882812 20.21875 27.785156 20.21875 Z M 11.90625 31.136719 C 10.808594 31.136719 9.921875 32.019531 9.921875 33.121094 L 9.921875 36.097656 C 9.921875 37.195312 10.808594 38.082031 11.90625 38.082031 L 19.84375 38.082031 C 20.945312 38.082031 21.832031 37.195312 21.832031 36.097656 L 21.832031 33.121094 C 21.832031 32.019531 20.945312 31.136719 19.84375 31.136719 Z M 27.785156 31.136719 C 26.683594 31.136719 25.800781 32.019531 25.800781 33.121094 L 25.800781 36.097656 C 25.800781 37.195312 26.683594 38.082031 27.785156 38.082031 L 35.722656 38.082031 C 36.820312 38.082031 37.707031 37.195312 37.707031 36.097656 L 37.707031 33.121094 C 37.707031 32.019531 36.820312 31.136719 35.722656 31.136719 Z M 27.785156 31.136719 "/>
<path style=" stroke:none;fill-rule:nonzero;fill:rgb(100%,100%,100%);fill-opacity:0.392157;" d="M 23.816406 8.3125 C 21.339844 8.3125 19.347656 10.304688 19.347656 12.777344 C 19.347656 12.902344 19.355469 13.027344 19.363281 13.152344 C 19.554688 10.851562 21.464844 9.058594 23.816406 9.058594 C 26.164062 9.058594 28.078125 10.851562 28.265625 13.152344 C 28.273438 13.027344 28.28125 12.902344 28.28125 12.777344 C 28.28125 10.304688 26.289062 8.3125 23.816406 8.3125 Z M 19.84375 20.21875 C 18.746094 20.21875 17.859375 21.105469 17.859375 22.207031 L 17.859375 22.949219 C 17.859375 21.851562 18.746094 20.964844 19.84375 20.964844 L 27.785156 20.964844 C 28.882812 20.964844 29.769531 21.851562 29.769531 22.949219 L 29.769531 22.207031 C 29.769531 21.105469 28.882812 20.21875 27.785156 20.21875 Z M 11.90625 31.136719 C 10.808594 31.136719 9.921875 32.019531 9.921875 33.121094 L 9.921875 33.863281 C 9.921875 32.765625 10.808594 31.878906 11.90625 31.878906 L 19.84375 31.878906 C 20.945312 31.878906 21.832031 32.765625 21.832031 33.863281 L 21.832031 33.121094 C 21.832031 32.019531 20.945312 31.136719 19.84375 31.136719 Z M 27.785156 31.136719 C 26.683594 31.136719 25.800781 32.019531 25.800781 33.121094 L 25.800781 33.863281 C 25.800781 32.765625 26.683594 31.878906 27.785156 31.878906 L 35.722656 31.878906 C 36.820312 31.878906 37.707031 32.765625 37.707031 33.863281 L 37.707031 33.121094 C 37.707031 32.019531 36.820312 31.136719 35.722656 31.136719 Z M 27.785156 31.136719 "/>
<path style=" stroke:none;fill-rule:nonzero;fill:rgb(0%,0%,0%);fill-opacity:0.235294;" d="M 19.375 13.273438 C 19.359375 13.4375 19.347656 13.601562 19.347656 13.769531 C 19.347656 16.246094 21.339844 18.234375 23.816406 18.234375 C 26.289062 18.234375 28.28125 16.246094 28.28125 13.769531 C 28.28125 13.601562 28.269531 13.4375 28.253906 13.273438 C 28.007812 15.511719 26.121094 17.242188 23.816406 17.242188 C 21.507812 17.242188 19.621094 15.511719 19.375 13.273438 Z M 17.859375 25.183594 L 17.859375 26.175781 C 17.859375 27.273438 18.746094 28.160156 19.84375 28.160156 L 27.785156 28.160156 C 28.882812 28.160156 29.769531 27.273438 29.769531 26.175781 L 29.769531 25.183594 C 29.769531 26.28125 28.882812 27.167969 27.785156 27.167969 L 19.84375 27.167969 C 18.746094 27.167969 17.859375 26.28125 17.859375 25.183594 Z M 9.921875 36.097656 L 9.921875 37.089844 C 9.921875 38.1875 10.808594 39.074219 11.90625 39.074219 L 19.84375 39.074219 C 20.945312 39.074219 21.832031 38.1875 21.832031 37.089844 L 21.832031 36.097656 C 21.832031 37.195312 20.945312 38.082031 19.84375 38.082031 L 11.90625 38.082031 C 10.808594 38.082031 9.921875 37.195312 9.921875 36.097656 Z M 25.800781 36.097656 L 25.800781 37.089844 C 25.800781 38.1875 26.683594 39.074219 27.785156 39.074219 L 35.722656 39.074219 C 36.820312 39.074219 37.707031 38.1875 37.707031 37.089844 L 37.707031 36.097656 C 37.707031 37.195312 36.820312 38.082031 35.722656 38.082031 L 27.785156 38.082031 C 26.683594 38.082031 25.800781 37.195312 25.800781 36.097656 Z M 25.800781 36.097656 "/>
<path style="fill:none;stroke-width:11.338583;stroke-linecap:round;stroke-linejoin:round;stroke:rgb(12.941176%,12.941176%,12.941176%);stroke-opacity:1;stroke-miterlimit:4;" d="M 960.065811 335.086115 C 860.232823 335.086115 779.925531 415.393408 779.925531 515.06893 C 779.925531 614.901917 860.232823 695.051745 960.065811 695.051745 C 1059.741333 695.051745 1140.048625 614.901917 1140.048625 515.06893 C 1140.048625 415.393408 1059.741333 335.086115 960.065811 335.086115 Z M 799.923621 815.040288 C 755.675878 815.040288 719.931259 850.784907 719.931259 895.190115 L 719.931259 1015.178659 C 719.931259 1059.426402 755.675878 1095.171021 799.923621 1095.171021 L 1120.050535 1095.171021 C 1164.298279 1095.171021 1200.042897 1059.426402 1200.042897 1015.178659 L 1200.042897 895.190115 C 1200.042897 850.784907 1164.298279 815.040288 1120.050535 815.040288 Z M 479.954173 1255.155745 C 435.706429 1255.155745 399.961811 1290.742898 399.961811 1335.148107 L 399.961811 1455.13665 C 399.961811 1499.384394 435.706429 1535.129012 479.954173 1535.129012 L 799.923621 1535.129012 C 844.32883 1535.129012 880.073449 1499.384394 880.073449 1455.13665 L 880.073449 1335.148107 C 880.073449 1290.742898 844.32883 1255.155745 799.923621 1255.155745 Z M 1120.050535 1255.155745 C 1075.645326 1255.155745 1040.058173 1290.742898 1040.058173 1335.148107 L 1040.058173 1455.13665 C 1040.058173 1499.384394 1075.645326 1535.129012 1120.050535 1535.129012 L 1440.019983 1535.129012 C 1484.267727 1535.129012 1520.012346 1499.384394 1520.012346 1455.13665 L 1520.012346 1335.148107 C 1520.012346 1290.742898 1484.267727 1255.155745 1440.019983 1255.155745 Z M 1120.050535 1255.155745 " transform="matrix(0.0248071,0,0,0.0248071,0,0)"/>
</g>
</svg>
